X:105
T:Bonniest Lass in all (?the world?). MBe.105, The
S:Matthew Betham MS, Towcett Cumbria, 1815
O:England;Cumbria;Towcett
Z:VMP – Hugh Taylor, 2012
M:C|
L:1/8
Q:1/2=100
R:.Reel
N:The page is torn and the title and music are incomplete.
N:Harrison has a tune “Bonniest Lass of aw the World”
K:G
GA|B2D2E2G2|”^As written”cBAG E2DE|GG gd|ecef|gfed efgB|cBAG E2DE|G2g2 decd:”>page torn”|
df|gfed efge|agfe fgaf|gfga agab|e4 defa|bage defB|cBAG E2DE|G:”^page torn”|

